X:4150
T:Paddy Clancy's
M:6/8
O:Ireland
R:Jig
Z:Richard Robinson 
%%TUNEURL: http://www.leeds.ac.uk/music/Info/RRTuneBk/gettune/00000728.html
%%ID:00000728
K:D
e|\
afd edc|dcB AFA|dAA efg|fdf efg|\
afd edc|dcB AFA|dAd efg|fdd d2::
e|\
f3 g3|fgf fed|ffef gab|afd e2d|\
f3 g3|fgf fed|faf ede|fdd d2:|
